X: 305761
M: 6/8
L: 1/8
K: C
efg geg | agf edc | efg abc' | cde d2c |\
efg geg | agf edc | GcA GEG | AcE D2"^D.C."C |]
K:Cm
c2c e2e | g3 g2a | gfe e>dc | dAd G2G |\


